src/topics/icons/speakerdeck.svg

<svg height="207" preserveAspectRatio="xMidYMid" viewBox="0 0 256 207" width="256" xmlns="http://www.w3.org/2000/svg" xmlns:xlink="http://www.w3.org/1999/xlink"><linearGradient id="a" x1="0%" x2="0%" y1="0%" y2="100%"><stop offset="0" stop-color="#3cb579"/><stop offset="1" stop-color="#004a4a"/></linearGradient><path d="m0 10.8935197c0-6.01632481 4.87719489-10.8935197 10.8935197-10.8935197h234.2129603c6.016325 0 10.89352 4.87719489 10.89352 10.8935197v185.1916323c0 6.016324-4.877195 10.893519-10.89352 10.893519h-234.2129603c-6.01632481 0-10.8935197-4.877195-10.8935197-10.893519z" fill="#e6e6e6"/><path d="m4 13.5480999c0-5.82555472 4.72254518-10.5480999 10.5480999-10.5480999h226.7863631c5.825554 0 10.5481 4.72254518 10.5481 10.5480999v179.3194391c0 5.825554-4.722546 10.548099-10.5481 10.548099h-226.7863631c-5.82555472 0-10.5480999-4.722545-10.5480999-10.548099z" fill="url(#a)"/><g transform="translate(72 70)"><rect fill-opacity=".5" height="63.289232" rx=".5" width="110.756156" x=".988894" y=".988894"/><g fill="#fff"><path d="m16.8112023 32.6335104 31.6446161-15.8223081v31.6446161z"/><path d="m95.9227426 32.6335104-31.6446161-15.8223081v31.6446161z"/></g></g></svg>

<?xml version="1.0" encoding="UTF-8" standalone="no"?>
<svg width="256px" height="207px" viewBox="0 0 256 207" version="1.1" xmlns="http://www.w3.org/2000/svg" xmlns:xlink="http://www.w3.org/1999/xlink" preserveAspectRatio="xMidYMid">
    <defs>
        <linearGradient x1="0%" y1="0%" x2="0%" y2="100%" id="linearGradient-1">
            <stop stop-color="#3CB579" offset="0%"></stop>
            <stop stop-color="#004A4A" offset="100%"></stop>
        </linearGradient>
    </defs>
	<g>
		<path d="M0,10.8935197 C3.62830719e-15,4.87719489 4.87719489,0 10.8935197,0 L245.10648,0 C251.122805,0 256,4.87719489 256,10.8935197 L256,196.085152 C256,202.101476 251.122805,206.978671 245.10648,206.978671 L10.8935197,206.978671 C4.87719489,206.978671 7.25661438e-15,202.101476 7.25661438e-15,196.085152 L0,10.8935197 Z" fill="#E6E6E6"></path>
		<path d="M4,13.5480999 C4,7.72254518 8.72254518,3 14.5480999,3 L241.334463,3 C247.160017,3 251.882563,7.72254518 251.882563,13.5480999 L251.882563,192.867539 C251.882563,198.693093 247.160017,203.415638 241.334463,203.415638 L14.5480999,203.415638 C8.72254518,203.415638 4,198.693093 4,192.867539 L4,13.5480999 Z" fill="url(#linearGradient-1)"></path>
		<g transform="translate(72.000000, 70.000000)">
			<rect fill-opacity="0.5" fill="#000000" x="0.988894254" y="0.988894254" width="110.756156" height="63.2892323" rx="0.5"></rect>
			<path d="M16.8112023,32.6335104 L48.4558184,16.8112023 L48.4558184,48.4558184 L16.8112023,32.6335104 Z" fill="#FFFFFF"></path>
			<path d="M95.9227426,32.6335104 L64.2781265,16.8112023 L64.2781265,48.4558184 L95.9227426,32.6335104 Z" fill="#FFFFFF"></path>
		</g>
	</g>
</svg>
